X:11
T:The Last Pint
R:Jig
I:Appris en répé le 28 septembre 2015
K:D
M:6/8
Q:3/8=110
|: dAB d2A | Bdf efd | B2B ede | faa gfe |
   dAB d2A | Bdf efd | B2B edB |1 AFE D3 :|2 AFE DFA 
|: B2B BAF | ABc d2B | ABA AFE | EFA DFA |
   B2B BAF | ABc d2c | d2d dBA |1 a2g f2d :|2 a2g f2e ||

